X: 305686
M: 6/8
L: 1/8
K: A
c/d/ |\
e3 {f}e^de | c3 A3 | B2B e2e | {d}cBc A2z |\
fga ega | dga cea | Bdc BAG | AAA A2 H|]
a/b/ |\
c'3 {d'}c'^bc' | a3 e2c | z(.B.B) z(.e.e) | z(.c.c) a2e |\
fga ega | dga cea | Bdc BAG | AAA A2 H|]
z |\
c2c c^de & zAA zAA | e2B BcB & zGG zGG |\
cAe ^dBf | egf e^dc | BcB AGF | EGB e>ga/"^D.C."b/ |]


